svg/ionicons/bus-sharp.svg

<svg xmlns="http://www.w3.org/2000/svg" width="512" height="512" viewBox="0 0 512 512"><path fill="currentColor" d="M400 64H112a16 16 0 000 32h288a16 16 0 000-32"/><path d="M424 32H88a24 24 0 00-24 24v360a32 32 0 0016 27.71V480h72v-32h208v32h72v-36.29A32 32 0 00448 416V56a24 24 0 00-24-24M175.82 371.47a32 32 0 11-35.3-35.29 32.09 32.09 0 0135.3 35.29M240 288H96V128h144Zm16-192H96.46L96 64h320l-.46 32zm16 32h144v160H272Zm64.18 236.53a32 32 0 1135.3 35.29 32.09 32.09 0 01-35.3-35.29"/></svg>

<svg xmlns="http://www.w3.org/2000/svg" width="512" height="512" viewBox="0 0 512 512"><path d="M400,64H112a16,16,0,0,0,0,32H400a16,16,0,0,0,0-32Z" style="fill:none"/><path d="M424,32H88A24,24,0,0,0,64,56V416a32,32,0,0,0,16,27.71V480h72V448H360v32h72V443.71A32,32,0,0,0,448,416V56A24,24,0,0,0,424,32ZM175.82,371.47a32,32,0,1,1-35.3-35.29A32.09,32.09,0,0,1,175.82,371.47ZM240,288H96V128H240ZM256,96H96.46L96,64H416l-.46,32H256Zm16,32H416V288H272Zm64.18,236.53a32,32,0,1,1,35.3,35.29A32.09,32.09,0,0,1,336.18,364.53Z"/></svg>
